assets/images/icons/location.svg

<?xml version="1.0" encoding="UTF-8" standalone="no"?>
<svg width="40px" height="40px" viewBox="0 0 40 40" version="1.1" xmlns="http://www.w3.org/2000/svg" xmlns:xlink="http://www.w3.org/1999/xlink">
  <!-- Generator: Sketch 46 (44423) - http://www.bohemiancoding.com/sketch -->
  <title>Locate</title>
  <desc>Created with Sketch.</desc>
  <defs></defs>
  <g id="Empress" stroke="none" stroke-width="1" fill="none" fill-rule="evenodd">
    <g id="Home_Desktop" transform="translate(-172.000000, -4908.000000)" fill="#D9DC58">
      <g id="Group-3" transform="translate(-1.000000, 4857.000000)">
        <g id="Locate" transform="translate(173.000000, 51.000000)">
          <path d="M19.5577778,18.6677778 C18.5766667,18.6677778 17.7777778,17.8644444 17.7777778,16.8877778 C17.7777778,15.9111111 18.5766667,15.1133333 19.5577778,15.1133333 C20.5333333,15.1133333 21.3322222,15.9111111 21.3322222,16.8877778 C21.3322222,17.8644444 20.5333333,18.6677778 19.5577778,18.6677778 M19.5577778,11.5533333 C16.6233333,11.5533333 14.2233333,13.9544444 14.2233333,16.8877778 C14.2233333,18.0422222 14.5788889,19.2011111 15.2911111,20.0866667 L19.2011111,25.3344444 C19.3788889,25.5122222 19.6444444,25.5988889 19.8222222,25.4211111 L19.9133333,25.3344444 L23.8233333,20.0866667 C24.5311111,19.2011111 24.8866667,18.0422222 24.8866667,16.8877778 C24.8866667,13.9544444 22.4866667,11.5533333 19.5577778,11.5533333" id="Fill-1"></path>
          <path d="M26.6666667,22.2222222 L20.2644444,30.7555556 C20.0866667,30.9333333 19.8222222,31.1111111 19.5577778,31.1111111 C19.2877778,31.1111111 19.0233333,30.9333333 18.8455556,30.7555556 L12.4433333,22.2222222 C11.2888889,20.7122222 10.6688889,18.9322222 10.6688889,16.8877778 C10.6688889,12.0011111 14.6655556,7.99888889 19.5577778,7.99888889 C24.4444444,7.99888889 28.4466667,12.0011111 28.4466667,16.8877778 C28.4466667,18.8455556 27.8211111,20.7122222 26.6666667,22.2222222 M19.5577778,0 C8.71111111,0 0,8.71111111 0,19.5577778 C0,30.3988889 8.71111111,39.11 19.5577778,39.11 C30.3988889,39.11 39.11,30.3988889 39.11,19.5577778 C39.11,8.71111111 30.3988889,0 19.5577778,0" id="Fill-3"></path>
        </g>
      </g>
    </g>
  </g>
</svg>

<svg width="40" height="40" viewBox="0 0 40 40" xmlns="http://www.w3.org/2000/svg"><title>Locate</title><g fill="#D9DC58" fill-rule="evenodd"><path d="M19.558 18.668c-.981 0-1.78-.804-1.78-1.78a1.78 1.78 0 0 1 1.78-1.775 1.78 1.78 0 0 1 1.774 1.775c0 .976-.799 1.78-1.774 1.78m0-7.115c-2.935 0-5.335 2.401-5.335 5.335 0 1.154.356 2.313 1.068 3.199l3.91 5.247c.178.178.443.265.621.087l.091-.087 3.91-5.247c.708-.886 1.064-2.045 1.064-3.2 0-2.933-2.4-5.334-5.33-5.334"/><path d="M26.667 22.222l-6.403 8.534c-.177.177-.442.355-.706.355-.27 0-.535-.178-.712-.355l-6.403-8.534c-1.154-1.51-1.774-3.29-1.774-5.334 0-4.887 3.997-8.89 8.889-8.89 4.886 0 8.889 4.003 8.889 8.89a8.756 8.756 0 0 1-1.78 5.334M19.557 0A19.5 19.5 0 0 0 0 19.558 19.499 19.499 0 0 0 19.558 39.11 19.498 19.498 0 0 0 39.11 19.558 19.499 19.499 0 0 0 19.558 0"/></g></svg>
